X:7
T:Derrire chez nous
R:Pastourelle
A:Normandie
O:France
M:2/4
L:1/8
Q:1/4=110
K:C
GA/2B/2 cc|cc cB/2c/2|dedc|c2d z:|
|:dd/2d/2 de|ce de|ce de/2d/2|ce d2|d2 z G/2G/2|
|:cc BA|dd GA/2B/2|cc BA|1d2 cG/2G/2:|2d2c2||
